src/assets/duotone/Cardano.svg

<svg width="24" height="24" viewBox="0 0 24 24"  xmlns="http://www.w3.org/2000/svg">
<g opacity="0.6">
<path opacity="0.6" d="M17.1504 10C17.7027 10 18.1504 9.55228 18.1504 9C18.1504 8.44772 17.7027 8 17.1504 8C16.5981 8 16.1504 8.44772 16.1504 9C16.1504 9.55228 16.5981 10 17.1504 10Z" />
<path opacity="0.6" d="M17.1504 16C17.7027 16 18.1504 15.5523 18.1504 15C18.1504 14.4477 17.7027 14 17.1504 14C16.5981 14 16.1504 14.4477 16.1504 15C16.1504 15.5523 16.5981 16 17.1504 16Z" />
<path opacity="0.6" d="M19.75 13C20.3023 13 20.75 12.5523 20.75 12C20.75 11.4477 20.3023 11 19.75 11C19.1977 11 18.75 11.4477 18.75 12C18.75 12.5523 19.1977 13 19.75 13Z" />
<path opacity="0.6" d="M6.80029 10C7.35258 10 7.80029 9.55228 7.80029 9C7.80029 8.44772 7.35258 8 6.80029 8C6.24801 8 5.80029 8.44772 5.80029 9C5.80029 9.55228 6.24801 10 6.80029 10Z" />
<path opacity="0.6" d="M6.80029 16C7.35258 16 7.80029 15.5523 7.80029 15C7.80029 14.4477 7.35258 14 6.80029 14C6.24801 14 5.80029 14.4477 5.80029 15C5.80029 15.5523 6.24801 16 6.80029 16Z" />
<path opacity="0.6" d="M4.2002 13C4.75248 13 5.2002 12.5523 5.2002 12C5.2002 11.4477 4.75248 11 4.2002 11C3.64791 11 3.2002 11.4477 3.2002 12C3.2002 12.5523 3.64791 13 4.2002 13Z" />
<path opacity="0.6" d="M15.9004 6.19922C16.4527 6.19922 16.9004 5.7515 16.9004 5.19922C16.9004 4.64693 16.4527 4.19922 15.9004 4.19922C15.3481 4.19922 14.9004 4.64693 14.9004 5.19922C14.9004 5.7515 15.3481 6.19922 15.9004 6.19922Z" />
<path opacity="0.6" d="M8.1001 6.19922C8.65238 6.19922 9.1001 5.7515 9.1001 5.19922C9.1001 4.64693 8.65238 4.19922 8.1001 4.19922C7.54781 4.19922 7.1001 4.64693 7.1001 5.19922C7.1001 5.7515 7.54781 6.19922 8.1001 6.19922Z" />
<path opacity="0.6" d="M12.0503 7C12.6026 7 13.0503 6.55228 13.0503 6C13.0503 5.44772 12.6026 5 12.0503 5C11.498 5 11.0503 5.44772 11.0503 6C11.0503 6.55228 11.498 7 12.0503 7Z" />
<path opacity="0.6" d="M15.9004 20C16.4527 20 16.9004 19.5523 16.9004 19C16.9004 18.4477 16.4527 18 15.9004 18C15.3481 18 14.9004 18.4477 14.9004 19C14.9004 19.5523 15.3481 20 15.9004 20Z" />
<path opacity="0.6" d="M8.1001 20C8.65238 20 9.1001 19.5523 9.1001 19C9.1001 18.4477 8.65238 18 8.1001 18C7.54781 18 7.1001 18.4477 7.1001 19C7.1001 19.5523 7.54781 20 8.1001 20Z" />
<path opacity="0.6" d="M12.0503 19.1992C12.6026 19.1992 13.0503 18.7515 13.0503 18.1992C13.0503 17.6469 12.6026 17.1992 12.0503 17.1992C11.498 17.1992 11.0503 17.6469 11.0503 18.1992C11.0503 18.7515 11.498 19.1992 12.0503 19.1992Z" />
</g>
<path d="M13.75 10.25C14.4404 10.25 15 9.69036 15 9C15 8.30964 14.4404 7.75 13.75 7.75C13.0596 7.75 12.5 8.30964 12.5 9C12.5 9.69036 13.0596 10.25 13.75 10.25Z" />
<path d="M10.25 10.25C10.9404 10.25 11.5 9.69036 11.5 9C11.5 8.30964 10.9404 7.75 10.25 7.75C9.55964 7.75 9 8.30964 9 9C9 9.69036 9.55964 10.25 10.25 10.25Z" />
<path d="M15.5 13.25C16.1904 13.25 16.75 12.6904 16.75 12C16.75 11.3096 16.1904 10.75 15.5 10.75C14.8096 10.75 14.25 11.3096 14.25 12C14.25 12.6904 14.8096 13.25 15.5 13.25Z" />
<path d="M8.5 13.25C9.19036 13.25 9.75 12.6904 9.75 12C9.75 11.3096 9.19036 10.75 8.5 10.75C7.80964 10.75 7.25 11.3096 7.25 12C7.25 12.6904 7.80964 13.25 8.5 13.25Z" />
<path d="M10.25 16.25C10.9404 16.25 11.5 15.6904 11.5 15C11.5 14.3096 10.9404 13.75 10.25 13.75C9.55964 13.75 9 14.3096 9 15C9 15.6904 9.55964 16.25 10.25 16.25Z" />
<path d="M13.75 16.25C14.4404 16.25 15 15.6904 15 15C15 14.3096 14.4404 13.75 13.75 13.75C13.0596 13.75 12.5 14.3096 12.5 15C12.5 15.6904 13.0596 16.25 13.75 16.25Z" />
<g opacity="0.4">
<path opacity="0.4" d="M12.0001 3.33008C11.5101 3.33008 11.1201 2.94008 11.1201 2.45008C11.1201 1.96008 11.5101 1.58008 12.0001 1.58008C12.4901 1.58008 12.8801 1.97008 12.8801 2.46008C12.8801 2.95008 12.4901 3.33008 12.0001 3.33008Z" />
</g>
<g opacity="0.4">
<path opacity="0.4" d="M17.2502 3.59961C16.8302 3.59961 16.4902 3.25961 16.4902 2.84961C16.4902 2.43961 16.8302 2.09961 17.2402 2.09961C17.6502 2.09961 18.0002 2.43961 18.0002 2.84961C18.0002 3.25961 17.6702 3.59961 17.2502 3.59961Z" />
</g>
<g opacity="0.4">
<path opacity="0.4" d="M6.75 3.59961C6.34 3.59961 6 3.25961 6 2.84961C6 2.43961 6.33 2.09961 6.75 2.09961H6.76C7.17 2.09961 7.51 2.43961 7.51 2.84961C7.51 3.25961 7.17 3.59961 6.75 3.59961Z" />
</g>
<g opacity="0.4">
<path opacity="0.4" d="M12.0001 22.3791C11.5101 22.3791 11.1201 21.9891 11.1201 21.4991C11.1201 21.0091 11.5101 20.6191 12.0001 20.6191C12.4901 20.6191 12.8801 21.0091 12.8801 21.4991C12.8801 21.9891 12.4901 22.3791 12.0001 22.3791Z" />
</g>
<g opacity="0.4">
<path opacity="0.4" d="M17.2502 21.8496C16.8302 21.8496 16.4902 21.5096 16.4902 21.0996C16.4902 20.6896 16.8302 20.3496 17.2402 20.3496C17.6502 20.3496 18.0002 20.6896 18.0002 21.0996C18.0002 21.5096 17.6702 21.8496 17.2502 21.8496Z" />
</g>
<g opacity="0.4">
<path opacity="0.4" d="M6.75 21.8496C6.34 21.8496 6 21.5096 6 21.0996C6 20.6896 6.33 20.3496 6.75 20.3496H6.76C7.17 20.3496 7.51 20.6896 7.51 21.0996C7.51 21.5096 7.17 21.8496 6.75 21.8496Z" />
</g>
<g opacity="0.4">
<path opacity="0.4" d="M1.54992 12.8791C1.06992 12.8791 0.669922 12.4891 0.669922 12.0091V11.9991C0.669922 11.5191 1.05992 11.1191 1.54992 11.1191C2.03992 11.1191 2.41992 11.5091 2.41992 11.9991C2.41992 12.4891 2.02992 12.8791 1.54992 12.8791Z" />
</g>
<g opacity="0.4">
<path opacity="0.4" d="M3.75 17.7502C3.34 17.7502 3 17.4102 3 17.0002V16.9902C3 16.5802 3.34 16.2402 3.75 16.2402C4.16 16.2402 4.5 16.5802 4.5 16.9902C4.5 17.4002 4.16 17.7502 3.75 17.7502Z" />
</g>
<g opacity="0.4">
<path opacity="0.4" d="M3.75 7.75977C3.34 7.75977 3 7.41977 3 7.00977C3 6.59977 3.34 6.25977 3.75 6.25977C4.16 6.25977 4.5 6.58977 4.5 6.99977V7.00977C4.5 7.41977 4.16 7.75977 3.75 7.75977Z" />
</g>
<g opacity="0.4">
<path opacity="0.4" d="M22.5001 12.8791C22.0201 12.8791 21.6201 12.4891 21.6201 12.0091V11.9991C21.6201 11.5191 22.0101 11.1191 22.5001 11.1191C22.9901 11.1191 23.3801 11.5091 23.3801 11.9991C23.3801 12.4891 22.9801 12.8791 22.5001 12.8791Z" />
</g>
<g opacity="0.4">
<path opacity="0.4" d="M20.2998 17.7502C19.8898 17.7502 19.5498 17.4202 19.5498 17.0002V16.9902C19.5498 16.5802 19.8898 16.2402 20.2998 16.2402C20.7098 16.2402 21.0498 16.5802 21.0498 16.9902C21.0498 17.4002 20.7098 17.7502 20.2998 17.7502Z" />
</g>
<g opacity="0.4">
<path opacity="0.4" d="M20.2998 7.75977C19.8898 7.75977 19.5498 7.41977 19.5498 7.00977C19.5498 6.59977 19.8898 6.25977 20.2998 6.25977C20.7098 6.25977 21.0498 6.58977 21.0498 6.99977V7.00977C21.0498 7.41977 20.7098 7.75977 20.2998 7.75977Z" />
</g>
</svg>

<?xml version="1.0" encoding="UTF-8"?>
<svg width="24" height="24" viewBox="0 0 24 24" xmlns="http://www.w3.org/2000/svg">
 <g opacity=".6">
  <path d="m17.15 10c0.5523 0 1-0.44772 1-1s-0.4477-1-1-1-1 0.44772-1 1 0.4477 1 1 1z" opacity=".6"/>
  <path d="m17.15 16c0.5523 0 1-0.4477 1-1s-0.4477-1-1-1-1 0.4477-1 1 0.4477 1 1 1z" opacity=".6"/>
  <path d="m19.75 13c0.5523 0 1-0.4477 1-1s-0.4477-1-1-1-1 0.4477-1 1 0.4477 1 1 1z" opacity=".6"/>
  <path d="m6.8003 10c0.55229 0 1-0.44772 1-1s-0.44771-1-1-1c-0.55228 0-1 0.44772-1 1s0.44772 1 1 1z" opacity=".6"/>
  <path d="m6.8003 16c0.55229 0 1-0.4477 1-1s-0.44771-1-1-1c-0.55228 0-1 0.4477-1 1s0.44772 1 1 1z" opacity=".6"/>
  <path d="m4.2002 13c0.55228 0 1-0.4477 1-1s-0.44772-1-1-1c-0.55229 0-1 0.4477-1 1s0.44771 1 1 1z" opacity=".6"/>
  <path d="m15.9 6.1992c0.5523 0 1-0.44772 1-1 0-0.55229-0.4477-1-1-1s-1 0.44771-1 1c0 0.55228 0.4477 1 1 1z" opacity=".6"/>
  <path d="m8.1001 6.1992c0.55228 0 1-0.44772 1-1 0-0.55229-0.44772-1-1-1-0.55229 0-1 0.44771-1 1 0 0.55228 0.44771 1 1 1z" opacity=".6"/>
  <path d="m12.05 7c0.5523 0 1-0.44772 1-1s-0.4477-1-1-1-1 0.44772-1 1 0.4477 1 1 1z" opacity=".6"/>
  <path d="m15.9 20c0.5523 0 1-0.4477 1-1s-0.4477-1-1-1-1 0.4477-1 1 0.4477 1 1 1z" opacity=".6"/>
  <path d="m8.1001 20c0.55228 0 1-0.4477 1-1s-0.44772-1-1-1c-0.55229 0-1 0.4477-1 1s0.44771 1 1 1z" opacity=".6"/>
  <path d="m12.05 19.199c0.5523 0 1-0.4477 1-1s-0.4477-1-1-1-1 0.4477-1 1 0.4477 1 1 1z" opacity=".6"/>
 </g>
 <path d="m13.75 10.25c0.6904 0 1.25-0.55964 1.25-1.25s-0.5596-1.25-1.25-1.25-1.25 0.55964-1.25 1.25 0.5596 1.25 1.25 1.25z"/>
 <path d="m10.25 10.25c0.6904 0 1.25-0.55964 1.25-1.25s-0.5596-1.25-1.25-1.25c-0.69036 0-1.25 0.55964-1.25 1.25s0.55964 1.25 1.25 1.25z"/>
 <path d="m15.5 13.25c0.6904 0 1.25-0.5596 1.25-1.25s-0.5596-1.25-1.25-1.25-1.25 0.5596-1.25 1.25 0.5596 1.25 1.25 1.25z"/>
 <path d="m8.5 13.25c0.69036 0 1.25-0.5596 1.25-1.25s-0.55964-1.25-1.25-1.25-1.25 0.5596-1.25 1.25 0.55964 1.25 1.25 1.25z"/>
 <path d="m10.25 16.25c0.6904 0 1.25-0.5596 1.25-1.25s-0.5596-1.25-1.25-1.25c-0.69036 0-1.25 0.5596-1.25 1.25s0.55964 1.25 1.25 1.25z"/>
 <path d="m13.75 16.25c0.6904 0 1.25-0.5596 1.25-1.25s-0.5596-1.25-1.25-1.25-1.25 0.5596-1.25 1.25 0.5596 1.25 1.25 1.25z"/>
 <g opacity=".4">
  <path d="m12 3.3301c-0.49 0-0.88-0.39-0.88-0.88s0.39-0.87 0.88-0.87 0.88 0.39 0.88 0.88-0.39 0.87-0.88 0.87z" opacity=".4"/>
  <path d="m17.25 3.5996c-0.42 0-0.76-0.34-0.76-0.75s0.34-0.75 0.75-0.75 0.76 0.34 0.76 0.75-0.33 0.75-0.75 0.75z" opacity=".4"/>
  <path d="m6.75 3.5996c-0.41 0-0.75-0.34-0.75-0.75s0.33-0.75 0.75-0.75h0.01c0.41 0 0.75 0.34 0.75 0.75s-0.34 0.75-0.76 0.75z" opacity=".4"/>
  <path d="m12 22.379c-0.49 0-0.88-0.39-0.88-0.88s0.39-0.88 0.88-0.88 0.88 0.39 0.88 0.88-0.39 0.88-0.88 0.88z" opacity=".4"/>
  <path d="m17.25 21.85c-0.42 0-0.76-0.34-0.76-0.75s0.34-0.75 0.75-0.75 0.76 0.34 0.76 0.75-0.33 0.75-0.75 0.75z" opacity=".4"/>
  <path d="m6.75 21.85c-0.41 0-0.75-0.34-0.75-0.75s0.33-0.75 0.75-0.75h0.01c0.41 0 0.75 0.34 0.75 0.75s-0.34 0.75-0.76 0.75z" opacity=".4"/>
  <path d="m1.5499 12.879c-0.48 0-0.88-0.39-0.88-0.87v-0.01c0-0.48 0.39-0.88 0.88-0.88s0.87 0.39 0.87 0.88-0.39 0.88-0.87 0.88z" opacity=".4"/>
  <path d="m3.75 17.75c-0.41 0-0.75-0.34-0.75-0.75v-0.01c0-0.41 0.34-0.75 0.75-0.75s0.75 0.34 0.75 0.75-0.34 0.76-0.75 0.76z" opacity=".4"/>
  <path d="m3.75 7.7598c-0.41 0-0.75-0.34-0.75-0.75s0.34-0.75 0.75-0.75 0.75 0.33 0.75 0.74v0.01c0 0.41-0.34 0.75-0.75 0.75z" opacity=".4"/>
  <path d="m22.5 12.879c-0.48 0-0.88-0.39-0.88-0.87v-0.01c0-0.48 0.39-0.88 0.88-0.88s0.88 0.39 0.88 0.88-0.4 0.88-0.88 0.88z" opacity=".4"/>
  <path d="m20.3 17.75c-0.41 0-0.75-0.33-0.75-0.75v-0.01c0-0.41 0.34-0.75 0.75-0.75s0.75 0.34 0.75 0.75-0.34 0.76-0.75 0.76z" opacity=".4"/>
  <path d="m20.3 7.7598c-0.41 0-0.75-0.34-0.75-0.75s0.34-0.75 0.75-0.75 0.75 0.33 0.75 0.74v0.01c0 0.41-0.34 0.75-0.75 0.75z" opacity=".4"/>
 </g>
</svg>
